liquidity/ui/public/WETH-pool.svg

<svg width="103" height="179" viewBox="0 0 103 179" fill="none" xmlns="http://www.w3.org/2000/svg">
<path d="M54.8377 86.2575L98.6697 111.71L98.6592 115.756L54.8585 141.227L47.8763 141.211L4.03828 115.755L4.03057 111.718L47.8695 86.2594L54.8377 86.2575Z" fill="#6B59FF"/>
<rect width="44.3767" height="44.3767" transform="matrix(0.864779 0.502153 -0.864779 0.502153 51.2148 91.3237)" fill="#00B0D6"/>
<path d="M16.9326 115.981L51.2422 96.0447L51.2422 100.76L20.9982 118.345L16.9326 115.981Z" fill="#008EAD"/>
<path d="M51.2148 96.0632L85.5335 115.982L81.4582 118.329L51.2149 100.782L51.2148 96.0632Z" fill="#008EAD"/>
<path d="M12.8367 113.609L51.2145 91.3239L51.2145 93.8004L14.9759 114.855L12.8367 113.609Z" fill="#2D1EA6"/>
<path d="M51.2148 91.3237L89.5881 113.607L87.4696 114.856L51.2148 93.8037L51.2148 91.3237Z" fill="#402FC8"/>
<path d="M14.8117 114.746L51.2176 93.5866L51.2176 96.063L16.9231 115.988L14.8117 114.746Z" fill="#2D1EA6"/>
<path d="M51.2148 93.5864L87.6611 114.73L85.5105 115.981L51.2148 96.0664L51.2148 93.5864Z" fill="#402FC8"/>
<mask id="path-9-inside-1_12669_5614" fill="white">
<path d="M3.6626 115.197L47.8452 140.853L47.8452 164L3.6626 138.344L3.6626 115.197Z"/>
</mask>
<path d="M3.6626 115.197L47.8452 140.853L47.8452 164L3.6626 138.344L3.6626 115.197Z" fill="#402FC8"/>
<path d="M47.4128 140.602L47.4128 163.749L48.2776 164.251L48.2776 141.104L47.4128 140.602Z" fill="#AEA4FF" mask="url(#path-9-inside-1_12669_5614)"/>
<mask id="path-11-inside-2_12669_5614" fill="white">
<path d="M54.8589 140.721L99.0411 115.065L99.0411 138.212L54.8589 163.868L54.8589 140.721Z"/>
</mask>
<path d="M54.8589 140.721L99.0411 115.065L99.0411 138.212L54.8589 163.868L54.8589 140.721Z" fill="#2D1EA6"/>
<path d="M55.2913 163.616L55.2913 140.47L54.4265 140.972L54.4265 164.119L55.2913 163.616Z" fill="#AEA4FF" mask="url(#path-11-inside-2_12669_5614)"/>
<mask id="path-13-inside-3_12669_5614" fill="white">
<path d="M47.842 140.853H54.8672V163.868H47.842V140.853Z"/>
</mask>
<path d="M47.842 140.853H54.8672V163.868H47.842V140.853Z" fill="#2D1EA6"/>
<path d="M47.842 140.853V140.353H47.342V140.853H47.842ZM54.8672 140.853H55.3672V140.353H54.8672V140.853ZM47.842 141.353H54.8672V140.353H47.842V141.353ZM54.3672 140.853V163.868H55.3672V140.853H54.3672ZM48.342 163.868V140.853H47.342V163.868H48.342Z" fill="#AEA4FF" mask="url(#path-13-inside-3_12669_5614)"/>
<path d="M3.66797 115.185L47.8526 140.853H54.857L99.0472 115.184" stroke="#AEA4FF"/>
<path d="M51.3521 131.971L96.4725 105.771L96.4725 113.741L51.3521 139.941L51.3521 131.971Z" fill="#C9C9D9"/>
<path d="M6.22998 105.651L51.3504 131.851L51.3504 139.94L6.22998 113.74L6.22998 105.651Z" fill="#E2E2F0"/>
<path d="M54.8431 54.7949L98.6752 80.2471L98.6526 84.3005L54.7001 109.859L47.7059 109.851L3.8678 84.3944L3.87211 80.3502L47.8628 54.8038L54.8431 54.7949Z" fill="#6B59FF"/>
<rect width="44.3767" height="44.3767" transform="matrix(0.864779 0.502153 -0.864779 0.502153 51.2146 63.5061)" fill="#00D1FF"/>
<path d="M16.9326 88.1641L51.2422 68.2273L51.2422 72.9425L20.9982 90.5277L16.9326 88.1641Z" fill="#008EAD"/>
<path d="M51.2146 68.2458L85.5332 88.1642L81.458 90.512L51.2146 72.9643L51.2146 68.2458Z" fill="#008EAD"/>
<path d="M12.8367 85.7916L51.2145 63.5066L51.2145 65.983L14.9759 87.0374L12.8367 85.7916Z" fill="#2D1EA6"/>
<path d="M51.2146 63.5061L89.5879 85.7891L87.4693 87.0381L51.2146 65.986L51.2146 63.5061Z" fill="#402FC8"/>
<path d="M14.8117 86.928L51.2176 65.7689L51.2176 68.2454L16.9231 88.1709L14.8117 86.928Z" fill="#2D1EA6"/>
<path d="M51.2146 65.769L87.6608 86.913L85.5102 88.1635L51.2146 68.249L51.2146 65.769Z" fill="#402FC8"/>
<mask id="path-26-inside-4_12669_5614" fill="white">
<path d="M3.66382 83.8706L47.8464 109.526L47.8464 132.675L3.66382 107.02L3.66382 83.8706Z"/>
</mask>
<path d="M3.66382 83.8706L47.8464 109.526L47.8464 132.675L3.66382 107.02L3.66382 83.8706Z" fill="#402FC8"/>
<path d="M47.4141 109.275L47.4141 132.424L48.2788 132.927L48.2788 109.777L47.4141 109.275Z" fill="#AEA4FF" mask="url(#path-26-inside-4_12669_5614)"/>
<mask id="path-28-inside-5_12669_5614" fill="white">
<path d="M54.8589 109.561L99.0411 83.9057L99.0411 107.052L54.8589 132.708L54.8589 109.561Z"/>
</mask>
<path d="M54.8589 109.561L99.0411 83.9057L99.0411 107.052L54.8589 132.708L54.8589 109.561Z" fill="#2D1EA6"/>
<path d="M55.2913 132.457L55.2913 109.31L54.4265 109.812L54.4265 132.959L55.2913 132.457Z" fill="#AEA4FF" mask="url(#path-28-inside-5_12669_5614)"/>
<mask id="path-30-inside-6_12669_5614" fill="white">
<path d="M47.8423 109.452H54.8675V132.675H47.8423V109.452Z"/>
</mask>
<path d="M47.8423 109.452H54.8675V132.675H47.8423V109.452Z" fill="#2D1EA6"/>
<path d="M47.8423 109.452V108.952H47.3423V109.452H47.8423ZM54.8675 109.452H55.3675V108.952H54.8675V109.452ZM47.8423 109.952H54.8675V108.952H47.8423V109.952ZM54.3675 109.452V132.675H55.3675V109.452H54.3675ZM48.3423 132.675V109.452H47.3423V132.675H48.3423Z" fill="#AEA4FF" mask="url(#path-30-inside-6_12669_5614)"/>
<path d="M3.66821 83.8386L47.8528 109.507H54.8572L99.0474 83.8376" stroke="#AEA4FF"/>
<circle cx="18.6466" cy="18.6466" r="18.6466" transform="matrix(0.866025 0.5 -2.20305e-08 1 10.1519 95.9761)" fill="#06061B"/>
<circle cx="18.6466" cy="18.6466" r="18.6466" transform="matrix(0.866025 0.5 -2.20305e-08 1 8.53125 96.9187)" fill="#06061B"/>
<g clip-path="url(#clip0_12669_5614)">
<path d="M24.7247 143.972C33.7047 149.156 40.9845 144.953 40.9845 134.584C40.9845 124.215 33.7047 111.606 24.7247 106.421C15.7446 101.237 8.46484 105.44 8.46484 115.809C8.46484 126.178 15.7446 138.787 24.7247 143.972Z" fill="#627EEA"/>
<path d="M25.2309 111.407L25.2309 121.816L32.8496 130.146L25.2309 111.407Z" fill="white" fill-opacity="0.602"/>
<path d="M25.2308 111.407L17.611 121.348L25.2308 121.816L25.2308 111.407Z" fill="white"/>
<path d="M25.2309 132.492L25.2309 139.564L32.8547 131.787L25.2309 132.492Z" fill="white" fill-opacity="0.602"/>
<path d="M25.2308 139.564L25.2308 132.491L17.611 122.986L25.2308 139.564Z" fill="white"/>
<path d="M25.2309 130.855L32.8496 130.146L25.2309 121.818L25.2309 130.855Z" fill="white" fill-opacity="0.2"/>
<path d="M17.611 121.348L25.2308 130.855L25.2308 121.818L17.611 121.348Z" fill="white" fill-opacity="0.602"/>
</g>
<path d="M12.8482 0H89.5897V83.16C89.5897 86.1715 85.6793 87.9664 82.9017 89.6431L51.2124 108.049L19.4952 89.6592C15.965 87.5767 12.8352 86.1715 12.8352 83.16V0H12.8482Z" fill="url(#paint0_linear_12669_5614)"/>
<path d="M80.2026 0H22.4473V85.6844H80.2026V0Z" fill="url(#paint1_linear_12669_5614)"/>
<defs>
<linearGradient id="paint0_linear_12669_5614" x1="51.2124" y1="0" x2="51.2124" y2="88.622" gradientUnits="userSpaceOnUse">
<stop stop-color="#2EDAFF" stop-opacity="0"/>
<stop offset="1" stop-color="#2EDAFF" stop-opacity="0.2"/>
</linearGradient>
<linearGradient id="paint1_linear_12669_5614" x1="51.3249" y1="0" x2="51.3249" y2="85.6844" gradientUnits="userSpaceOnUse">
<stop stop-color="#2EDAFF" stop-opacity="0"/>
<stop offset="0.864583" stop-color="#2EDAFF" stop-opacity="0.2"/>
<stop offset="1" stop-color="#2EDAFF" stop-opacity="0"/>
</linearGradient>
<clipPath id="clip0_12669_5614">
<rect width="37.5505" height="37.5505" fill="white" transform="matrix(0.866025 0.5 -2.20305e-08 1 8.46484 97.0337)"/>
</clipPath>
</defs>
</svg>

<svg width="103" height="179" fill="none" viewBox="0 0 103 179" xmlns="http://www.w3.org/2000/svg">
  <path fill="#6B59FF" d="M54.838 86.258 98.67 111.71l-.01 4.046-43.801 25.471-6.983-.016-43.838-25.456-.007-4.037L47.87 86.259z"/>
  <path fill="#00B0D6" d="m51.215 91.324 38.376 22.284-38.376 22.284-38.376-22.284z"/>
  <path fill="#008EAD" d="m16.933 115.981 34.31-19.936v4.715l-30.245 17.585z"/>
  <path fill="#008EAD" d="m51.215 96.063 34.319 19.919-4.076 2.347-30.243-17.547z"/>
  <path fill="#2D1EA6" d="m12.837 113.609 38.378-22.285V93.8l-36.24 21.055z"/>
  <path fill="#402FC8" d="m51.215 91.324 38.373 22.283-2.118 1.249-36.255-21.052z"/>
  <path fill="#2D1EA6" d="m14.812 114.746 36.406-21.16v2.477l-34.295 19.925z"/>
  <path fill="#402FC8" d="M51.215 93.586 87.66 114.73l-2.15 1.251-34.296-19.915z"/>
  <mask id="a" fill="#fff">
    <path d="m3.663 115.197 44.182 25.656V164L3.663 138.344z"/>
  </mask>
  <path fill="#402FC8" d="m3.663 115.197 44.182 25.656V164L3.663 138.344z"/>
  <path fill="#AEA4FF" d="M47.413 140.602v23.147l.865.502v-23.147z" mask="url(#a)"/>
  <mask id="b" fill="#fff">
    <path d="m54.859 140.721 44.182-25.656v23.147L54.86 163.868z"/>
  </mask>
  <path fill="#2D1EA6" d="m54.859 140.721 44.182-25.656v23.147L54.86 163.868z"/>
  <path fill="#AEA4FF" d="M55.291 163.616V140.47l-.864.502v23.147z" mask="url(#b)"/>
  <mask id="c" fill="#fff">
    <path d="M47.842 140.853h7.025v23.015h-7.025z"/>
  </mask>
  <path fill="#2D1EA6" d="M47.842 140.853h7.025v23.015h-7.025z"/>
  <path fill="#AEA4FF" d="M47.842 140.853v-.5h-.5v.5zm7.025 0h.5v-.5h-.5zm-7.025.5h7.025v-1h-7.025zm6.525-.5v23.015h1v-23.015zm-6.025 23.015v-23.015h-1v23.015z" mask="url(#c)"/>
  <path stroke="#AEA4FF" d="m3.668 115.185 44.185 25.668h7.004l44.19-25.669"/>
  <path fill="#C9C9D9" d="m51.352 131.971 45.12-26.2v7.97l-45.12 26.2z"/>
  <path fill="#E2E2F0" d="m6.23 105.651 45.12 26.2v8.089l-45.12-26.2z"/>
  <path fill="#6B59FF" d="m54.843 54.795 43.832 25.452-.022 4.053L54.7 109.86l-6.994-.008L3.868 84.394l.004-4.044 43.99-25.546z"/>
  <path fill="#00D1FF" d="M51.215 63.506 89.59 85.79l-38.376 22.284L12.838 85.79z"/>
  <path fill="#008EAD" d="m16.933 88.164 34.31-19.937v4.715L20.997 90.529z"/>
  <path fill="#008EAD" d="m51.215 68.246 34.318 19.918-4.075 2.348-30.243-17.548z"/>
  <path fill="#2D1EA6" d="m12.837 85.792 38.378-22.285v2.476l-36.24 21.054z"/>
  <path fill="#402FC8" d="M51.215 63.506 89.588 85.79l-2.119 1.25-36.254-21.053z"/>
  <path fill="#2D1EA6" d="m14.812 86.928 36.406-21.16v2.477L16.923 88.171z"/>
  <path fill="#402FC8" d="M51.215 65.769 87.66 86.913l-2.15 1.25L51.214 68.25z"/>
  <mask id="d" fill="#fff">
    <path d="m3.664 83.87 44.182 25.656v23.149L3.664 107.02z"/>
  </mask>
  <path fill="#402FC8" d="m3.664 83.87 44.182 25.656v23.149L3.664 107.02z"/>
  <path fill="#AEA4FF" d="M47.414 109.275v23.149l.865.503v-23.15z" mask="url(#d)"/>
  <mask id="e" fill="#fff">
    <path d="M54.859 109.561 99.04 83.906v23.146l-44.18 25.656z"/>
  </mask>
  <path fill="#2D1EA6" d="M54.859 109.561 99.04 83.906v23.146l-44.18 25.656z"/>
  <path fill="#AEA4FF" d="M55.291 132.457V109.31l-.864.502v23.147z" mask="url(#e)"/>
  <mask id="f" fill="#fff">
    <path d="M47.842 109.452h7.026v23.223h-7.026z"/>
  </mask>
  <path fill="#2D1EA6" d="M47.842 109.452h7.026v23.223h-7.026z"/>
  <path fill="#AEA4FF" d="M47.842 109.452v-.5h-.5v.5zm7.026 0h.5v-.5h-.5zm-7.026.5h7.026v-1h-7.026zm6.526-.5v23.223h1v-23.223zm-6.026 23.223v-23.223h-1v23.223z" mask="url(#f)"/>
  <path stroke="#AEA4FF" d="m3.668 83.839 44.185 25.668h7.004l44.19-25.67"/>
  <circle cx="18.647" cy="18.647" r="18.647" fill="#06061B" transform="matrix(.86603 .5 0 1 10.152 95.976)"/>
  <circle cx="18.647" cy="18.647" r="18.647" fill="#06061B" transform="matrix(.86603 .5 0 1 8.531 96.919)"/>
  <g clip-path="url(#g)">
    <path fill="#627EEA" d="M24.725 143.972c8.98 5.184 16.26.981 16.26-9.388s-7.28-22.978-16.26-28.163-16.26-.981-16.26 9.388 7.28 22.978 16.26 28.163"/>
    <path fill="#fff" fill-opacity=".602" d="M25.23 111.407v10.409l7.62 8.33z"/>
    <path fill="#fff" d="m25.23 111.407-7.619 9.941 7.62.468z"/>
    <path fill="#fff" fill-opacity=".602" d="M25.23 132.492v7.072l7.625-7.777z"/>
    <path fill="#fff" d="M25.23 139.564v-7.073l-7.619-9.505z"/>
    <path fill="#fff" fill-opacity=".2" d="m25.23 130.855 7.62-.709-7.62-8.328z"/>
    <path fill="#fff" fill-opacity=".602" d="m17.611 121.348 7.62 9.507v-9.037z"/>
  </g>
  <path fill="url(#h)" d="M12.848 0H89.59v83.16c0 3.011-3.91 4.806-6.688 6.483l-31.69 18.406-31.717-18.39c-3.53-2.082-6.66-3.488-6.66-6.499V0z"/>
  <path fill="url(#i)" d="M80.203 0H22.447v85.684h57.756z"/>
  <defs>
    <linearGradient id="h" x1="51.212" x2="51.212" y1="0" y2="88.622" gradientUnits="userSpaceOnUse">
      <stop stop-color="#2EDAFF" stop-opacity="0"/>
      <stop offset="1" stop-color="#2EDAFF" stop-opacity=".2"/>
    </linearGradient>
    <linearGradient id="i" x1="51.325" x2="51.325" y1="0" y2="85.684" gradientUnits="userSpaceOnUse">
      <stop stop-color="#2EDAFF" stop-opacity="0"/>
      <stop offset=".865" stop-color="#2EDAFF" stop-opacity=".2"/>
      <stop offset="1" stop-color="#2EDAFF" stop-opacity="0"/>
    </linearGradient>
    <clipPath id="g">
      <path fill="#fff" d="m8.465 97.034 32.52 18.775v37.55l-32.52-18.775z"/>
    </clipPath>
  </defs>
</svg>
